packages/Snapp/src/ShopingCartIcon/index.svg

<?xml version="1.0" encoding="UTF-8"?>
<svg width="24px" height="24px" viewBox="0 0 24 24" version="1.1" xmlns="http://www.w3.org/2000/svg" xmlns:xlink="http://www.w3.org/1999/xlink">
    <title>Icons/24/ShopingCart</title>
    <g id="Icons/24/ShopingCart" stroke="none" stroke-width="1" fill="none" fill-rule="evenodd">
        <rect id="Container" fill-opacity="0" fill="#D8D8D8" fill-rule="nonzero" x="0" y="0" width="24" height="24"></rect>
        <path d="M10,23 C8.8954305,23 8,22.1045695 8,21 C8,19.8954305 8.8954305,19 10,19 C11.1045695,19 12,19.8954305 12,21 C12,22.1045695 11.1045695,23 10,23 Z M17,23 C15.8954305,23 15,22.1045695 15,21 C15,19.8954305 15.8954305,19 17,19 C18.1045695,19 19,19.8954305 19,21 C19,22.1045695 18.1045695,23 17,23 Z M4.20798534,4 L2,4 C1.44771525,4 1,3.55228475 1,3 C1,2.44771525 1.44771525,2 2,2 L5,2 C5.46405149,2 5.86713113,2.31924498 5.97341717,2.77096067 L6.73301309,6 L21,6 C21.6375141,6 22.1122568,6.58852838 21.9773551,7.21160597 L20.3808397,14.5848164 C20.0977343,16.0101637 18.8337638,17.02766 17.4,17 L9.69916028,16.9998164 C8.24623619,17.02766 6.98226573,16.0101637 6.70658283,14.6190393 L4.20798534,4 Z M7.20349105,8 L8.66083972,14.1951836 C8.7552082,14.6702993 9.17653169,15.0094648 9.68,15 L17.4191603,15.0001836 C17.9034683,15.0094648 18.3247918,14.6702993 18.4226449,14.178394 L19.7603216,8 L7.20349105,8 Z" id="Shape" fill="#404040" fill-rule="nonzero"></path>
    </g>
</svg>

<svg viewBox="0 0 24 24" xmlns="http://www.w3.org/2000/svg" fill="currentColor" focusable="false">
  <path d="M10 23a2 2 0 110-4 2 2 0 010 4zm7 0a2 2 0 110-4 2 2 0 010 4zM4.208 4H2a1 1 0 110-2h3a1 1 0 01.973.771L6.733 6H21a1 1 0 01.977 1.212l-1.596 7.373A2.995 2.995 0 0117.4 17H9.7c-1.454.028-2.718-.99-2.993-2.381L4.208 4zm2.995 4l1.458 6.195c.094.475.516.814 1.019.805h7.74c.483.01.905-.33 1.003-.822L19.76 8H7.203z" fill="none"/>
</svg>
